modules/feathericon/icons/align-vertically.svg

<?xml version="1.0" encoding="UTF-8"?>
<svg width="24px" height="24px" viewBox="0 0 24 24" version="1.1" xmlns="http://www.w3.org/2000/svg" xmlns:xlink="http://www.w3.org/1999/xlink">
    <!-- Generator: sketchtool 52.2 (67145) - http://www.bohemiancoding.com/sketch -->
    <title>align-vertically</title>
    <desc>Created with sketchtool.</desc>
    <g id="production" stroke="none" stroke-width="1" fill="none" fill-rule="evenodd">
        <g id="align-vertically" fill="#000000">
            <path d="M17,13 L17,15 C17,16.1045695 16.1045695,17 15,17 C13.8954305,17 13,16.1045695 13,15 L13,13 L11,13 L11,17.7142857 C11,18.9766509 10.1045695,20 9,20 C7.8954305,20 7,18.9766509 7,17.7142857 L7,13 L3,13 C2.44771525,13 2,12.5522847 2,12 C2,11.4477153 2.44771525,11 3,11 L7,11 L7,6.28571429 C7,5.02334914 7.8954305,4 9,4 C10.1045695,4 11,5.02334914 11,6.28571429 L11,11 L13,11 L13,9 C13,7.8954305 13.8954305,7 15,7 C16.1045695,7 17,7.8954305 17,9 L17,11 L21,11 C21.5522847,11 22,11.4477153 22,12 C22,12.5522847 21.5522847,13 21,13 L17,13 Z" id="Shape"></path>
        </g>
    </g>
</svg>

<svg width="24" height="24" viewBox="0 0 24 24" xmlns="http://www.w3.org/2000/svg"><path d="M17 13v2a2 2 0 1 1-4 0v-2h-2v4.714C11 18.977 10.105 20 9 20s-2-1.023-2-2.286V13H3a1 1 0 0 1 0-2h4V6.286C7 5.023 7.895 4 9 4s2 1.023 2 2.286V11h2V9a2 2 0 1 1 4 0v2h4a1 1 0 0 1 0 2h-4z" fill="#000" fill-rule="evenodd"/></svg>
